**kern	**kern	**dynam
*part1	*part1	*part1
*staff2	*staff1	*
*I"Piano	*	*
*clefF4	*clefG2	*
*k[f#]	*k[f#]	*
=1	=1	=1
8E'L 8G 8B	16r	.
.	8e' 8g 8b	.
16E'Jk 16G 16B	.	.
8E'L 8G 8B	16r	.
.	8e' 8g 8b	.
16D#X'Jk 16F#	.	.
=	=	=
*	*^	*
8D#X'L 8F#	16r	8.ryy	p <
.	16cLL	.	.
16E'Jk 16G	[16BJJ	.	.
8E'L 8G	8re	16BLL]	.
.	.	16c	.
16F#'Jk 16A	([16d#X^	[16BJJ	.
=	=	=	=
8F#'L 8A	8d#L]	16BLL]	[
.	.	16c	.
16E'Jk 16G	[16eJk	[16BJJ	.
8E'L 8G	8.e])	16BLL]	.
.	.	16c	.
16D#X'Jk 16F#	.	[16BJJ	.
=	=	=	=
8D#X'L 8F#	8rg	16BLL]	<
.	.	16c	.
16E'Jk 16G	16re	[16BJJ	.
8E'L 8G	8rg	16BLL]	.
.	.	16c	.
16F#'Jk 16A	[16d#X^	[16BJJ	.
=	=	=	=
8F#'L 8A	8d#L]	16BLL]	.
.	.	16c	.
16E'Jk 16G	[16eJk	[16BJJ	.
8E'L 8G	8eL]	16BLL]	[
.	.	16c	.
16E'Jk 16G	[16eJk	[16BJJ	.
=	=	=	=
[8.E [8.G	8eL]	16BLL]	.
.	.	16c	.
.	[16eJk	[16BJJ	.
8E] 8G]	8eL]	16BLL]	>
.	.	16A	.
16r	[16BJk	[16GJJ	.
=	=	=	=
8rEE	8BL]<	16GLL]<	.
.	.	16F#<	.
16rEE	[16GJk<	[16EJJ<	.
16rGG	8.E_< 8.G_<	8.ryy	.
16CLL	.	.	.
[16BBJJ	.	.	.
*	*v	*v	*
=	=	=
8.EE 8.BB]	8.E]< 8.G]<	.
==	==	==
*-	*-	*-
!!!system-decoration: {(s1,s2)}
!!!RDF**kern: < = below
